X:1
T:Title
%%score [ ( 1 2 ) ( 3 4 ) ] { ( 5 6 ) | ( 7 8 ) }
L:1/8
Q:1/4=120
M:4/4
K:E
V:1 treble nm="Midi_74"
V:2 treble 
V:3 bass nm="Midi_74"
V:4 bass 
V:5 treble nm="Org."
V:6 treble 
V:7 bass 
V:8 bass 
V:1
 G8 | B4 (A2 G2) |{G} F8 || E8 | e4 (d2 c2) | (c2 B2) (A2 G2) | B8 || G8 | B4 (A2 G2) | c8 || F8 | %11
 E4 (F4 |"^John Camidge\n(1790-1859)" G4) F4 | E8 |] %14
V:2
 B,8 | B,4 B,4 | A,8 || (G,6 A,2) | B,4 (C2 D2) | E4 E4 |{E} D8 || E8 | F4 E4 | E8 || D8 | E4 E4 | %12
 E4 D4 | E8 |] %14
V:3
 G,8 | F,4 G,4 | D,8 || (E,6 F,2) | G,4 (A,2 F,2) | G,4 B,4 | B,8 || B,8 | B,4 B,4 | C8 || B,8 | %11
 B,4 C4 | B,4 A,4 | G,8 |] %14
V:4
 E,8 | D,4 E,4 | B,,8 || E,8 | E,4 E,4 | E,4 E,4 | B,,8 || E,8 | D,4 E,4 | A,,8 || A,8 | G,4 A,4 | %12
 B,4 B,,4 | E,8 |] %14
V:5
 G8 | B4 A2 G2 |{G} F8 || E8 | e4 d2 c2 | c2 B2 A2 G2 | [B,B]8 || G8 | B4 x4 | c8 || F8 | E4 F4 | %12
 G4 F4 | E8 |] %14
V:6
 ([B,E]8 | [B,F]4) [B,E]4 | D8 || E8- | E4 x4 | x4 ([B,E]4 | [EG]4) [DF]4 || ([B,E]8 | %8
{A} ([B,F]4) [B,EG]4) | [CE]8 || ([B,D]8 | B,4) C4 | [B,E]4 [A,B,D]4 | [G,B,E]8 |] %14
V:7
"^8 vi" x8 | x8 | A,8 || G,6 [F,A,]2 | B,4 [A,C]2 [F,D]2 | [G,E]4 x4 | B,8 || x8 | x8 | A,8 || %10
 A,8 | x8 | x8 | E,8 |] %14
V:8
 E,8 | D,4 E,4 | B,,8 || E,8 | [E,G,]4 E,4 | E,4 E,4 | B,,8 || E,8 | D,4 E,4 | A,,8 || A,,8 | %11
 [G,,G,]4 [A,,A,]4 | B,,4 [B,,,B,,]4 | [E,,E,]8 |] %14

